symbols/web/stairs/materialsymbolssharp/stairs_wght100_40px.svg

<svg xmlns="http://www.w3.org/2000/svg" height="40" width="40"><path d="M11.167 28.833h5.041v-5.541H20.5V17.75h4.292v-5.583h4.041v-1h-5.041v5.541H19.5v5.542h-4.292v5.583h-4.041Zm-4 4V7.167h25.666v25.666Zm1-1h23.666V8.167H8.167Zm0 0V8.167v23.666Z"/></svg>

<svg xmlns="http://www.w3.org/2000/svg" height="40" width="40"><path d="M11.167 28.833H16.208V23.292H20.5V17.75H24.792V12.167H28.833V11.167H23.792V16.708H19.5V22.25H15.208V27.833H11.167ZM7.167 32.833V7.167H32.833V32.833ZM8.167 31.833H31.833V8.167H8.167ZM8.167 31.833V8.167V31.833Z"/></svg>
